static/sponsors/zuhlke.svg

<?xml version="1.0" encoding="utf-8"?>
<!-- Generator: Adobe Illustrator 16.0.0, SVG Export Plug-In . SVG Version: 6.00 Build 0)  -->
<!DOCTYPE svg PUBLIC "-//W3C//DTD SVG 1.1//EN" "http://www.w3.org/Graphics/SVG/1.1/DTD/svg11.dtd">
<svg version="1.1" id="Layer_1" xmlns="http://www.w3.org/2000/svg" xmlns:xlink="http://www.w3.org/1999/xlink" x="0px" y="0px"
	 width="240px" height="100px" viewBox="0 0 240 100" enable-background="new 0 0 240 100" xml:space="preserve">
<rect x="-116.802" y="-798.349" display="none" fill="#221F1F" width="1489.072" height="1468.349"/>
<rect display="none" fill="none" stroke="#FFF200" stroke-width="1.0445" stroke-miterlimit="10" width="240" height="100"/>
<g>
	<path fill="#FFF4E2" d="M168.691,68.948"/>
	<g>
		<path fill="#FFF4E2" d="M87.636,52.333v2.813H70.178l12.196-15.125H72.197v-2.78h15.937l-12.13,15.092H87.636z"/>
		<g>
			<path fill="#FFF4E2" d="M93.594,47.236c0,2.996,0.348,5.594,4.038,5.594c3.69,0,4.037-2.582,4.037-5.594v-9.995h3.045v10.343
				c0,4.75-1.788,8.092-7.116,8.092c-5.279,0-7.116-3.31-7.116-8.092V37.241h3.045v9.995H93.594z"/>
			<path fill="#FFF4E2" d="M96.49,27.659c0,1.142-0.91,2.052-2.052,2.052c-1.142,0-2.052-0.91-2.052-2.052
				c0-1.142,0.911-2.052,2.052-2.052C95.58,25.607,96.49,26.518,96.49,27.659z"/>
			<path fill="#FFF4E2" d="M102.944,27.659c0,1.142-0.91,2.052-2.052,2.052c-1.142,0-2.052-0.91-2.052-2.052
				c0-1.142,0.91-2.052,2.052-2.052C102.034,25.607,102.944,26.518,102.944,27.659z"/>
		</g>
		<path fill="#FFF4E2" d="M112.228,25.723v13.653l0.083,0.083c1.258-1.704,2.896-2.664,5.097-2.664c4.948,0,6.089,3.575,6.089,7.794
			v10.641h-3.044V45.085c0-2.896-0.232-5.478-3.757-5.478c-4.187,0-4.452,3.873-4.452,7.116v8.506h-3.045V25.723H112.228z"/>
		<path fill="#FFF4E2" d="M131.043,55.146h-3.045V25.723h3.045V55.146z"/>
		<path fill="#FFF4E2" d="M139.102,43.894l6.537-6.652h4.071l-7.678,7.646l9.118,10.31h-4.021l-8.026-9.085v9.085h-3.044V25.723
			h3.044V43.894L139.102,43.894z"/>
		<path fill="#FFF4E2" d="M165.381,49.454c-1.142,1.97-2.73,3.376-5.163,3.376c-3.376,0-5.709-2.665-5.742-5.974h13.802
			c0.298-5.329-2.698-10.111-8.324-10.111c-5.478,0-8.522,4.369-8.522,9.697c0,5.13,3.343,9.234,8.589,9.234
			c3.458,0,6.156-1.754,7.877-4.75L165.381,49.454z M159.937,39.558c2.631,0,4.75,2.085,5.163,4.683h-10.491
			C154.956,41.66,157.355,39.558,159.937,39.558z"/>
	</g>
	<g>
		<path fill="#FFF4E2" d="M75.887,69.709c-0.496,0.993-1.324,1.555-2.466,1.555c-2.085,0-2.929-1.82-2.929-3.69
			c0-1.937,0.877-3.69,3.044-3.69c1.109,0,1.937,0.53,2.35,1.522c0.116,0.265,0.182,0.562,0.182,0.877
			c0,0.265-0.149,0.381-0.38,0.414l-4.137,0.613c0.083,1.225,0.612,2.78,2.084,2.78c0.911,0,1.49-0.562,1.937-1.324
			c0.116-0.149,0.116-0.298,0.348-0.298c0.182,0,0.265,0.149,0.265,0.348C76.103,69.097,75.954,69.527,75.887,69.709z
			 M74.745,66.218c-0.083-0.761-0.612-1.523-1.439-1.523c-1.175,0-1.671,0.993-1.787,2.052L74.745,66.218z"/>
		<path fill="#FFF4E2" d="M86.18,70.851c0,0.182-0.033,0.265-0.231,0.265h-0.712c-0.182,0-0.231-0.033-0.231-0.265v-4.418
			c0-0.91-0.148-1.754-1.291-1.754c-0.53,0-1.026,0.231-1.258,0.761c-0.033,0.149-0.083,0.463-0.083,0.645v4.75
			c0,0.149,0,0.265-0.232,0.265h-0.761c-0.149,0-0.231-0.083-0.231-0.232v-4.683c0-0.877-0.348-1.556-1.324-1.556
			c-0.529,0-1.026,0.231-1.225,0.761c-0.083,0.182-0.083,0.496-0.083,0.728v4.716c0,0.182-0.033,0.265-0.265,0.265h-0.678
			c-0.182,0-0.232-0.033-0.232-0.265V65.39c0-0.381,0-0.562,0.265-0.877c0.381-0.414,1.705-0.612,2.251-0.612
			c0.794,0,1.522,0.149,2.019,0.844c0.613-0.646,1.258-0.844,2.135-0.844c1.407,0,2.201,0.612,2.201,2.019L86.18,70.851
			L86.18,70.851z"/>
		<path fill="#FFF4E2" d="M90.45,71.265c-0.563,0-0.993-0.148-1.49-0.497v3.277c0,0.149-0.083,0.232-0.231,0.232H88.05
			c-0.182,0-0.265-0.033-0.265-0.232v-8.208c0-0.347-0.033-0.761,0.149-1.059c0.414-0.612,1.82-0.877,2.516-0.877
			c2.084,0,3.16,1.374,3.16,3.343C93.594,69.097,92.568,71.265,90.45,71.265z M90.168,64.662c-0.91,0-1.175,0.348-1.175,1.175v4.137
			c0.414,0.265,0.877,0.463,1.374,0.463c1.489,0,2.019-1.705,2.019-2.929C92.386,66.135,91.774,64.662,90.168,64.662z"/>
		<path fill="#FFF4E2" d="M97.583,71.265c-2.052,0-3.111-1.82-3.111-3.69c0-1.788,1.142-3.658,3.111-3.658
			c2.019,0,3.078,1.937,3.078,3.724S99.568,71.265,97.583,71.265z M99.37,67.475c0-1.059-0.562-2.78-1.903-2.78
			c-1.373,0-1.754,1.639-1.754,2.731c0,1.142,0.463,3.044,1.903,3.044c1.324,0,1.754-1.671,1.754-2.73V67.475z"/>
		<path fill="#FFF4E2" d="M109.795,64.463l-1.969,6.421c-0.033,0.116-0.033,0.182-0.182,0.182h-0.463c-0.182,0-0.232,0-0.265-0.182
			l-1.324-4.369l-1.324,4.369c-0.033,0.182-0.083,0.182-0.265,0.182h-0.397c-0.182,0-0.231-0.033-0.265-0.182l-2.052-6.421
			c-0.033-0.116-0.033-0.149-0.033-0.231c0-0.116,0.082-0.149,0.182-0.149h0.762c0.231,0,0.265,0.033,0.347,0.265l1.489,5.014
			l1.49-5.014c0.083-0.265,0.033-0.265,0.38-0.265c0.149,0,0.149,0.116,0.182,0.231l1.556,5.097l1.406-5.063
			c0.033-0.182,0.083-0.265,0.298-0.265h0.497c0.083,0,0.232,0,0.232,0.149C109.877,64.314,109.828,64.381,109.795,64.463z"/>
		<path fill="#FFF4E2" d="M115.72,69.709c-0.497,0.993-1.325,1.555-2.466,1.555c-2.085,0-2.929-1.82-2.929-3.69
			c0-1.937,0.877-3.69,3.045-3.69c1.108,0,1.936,0.53,2.35,1.522c0.116,0.265,0.182,0.562,0.182,0.877
			c0,0.265-0.149,0.381-0.381,0.414l-4.137,0.613c0.083,1.225,0.612,2.78,2.085,2.78c0.91,0,1.49-0.562,1.936-1.324
			c0.116-0.149,0.116-0.298,0.348-0.298c0.182,0,0.265,0.149,0.265,0.348C115.952,69.097,115.802,69.527,115.72,69.709z
			 M114.578,66.218c-0.083-0.761-0.612-1.523-1.44-1.523c-1.175,0-1.671,0.993-1.787,2.052L114.578,66.218z"/>
		<path fill="#FFF4E2" d="M120.551,65.258c-0.529,0-0.529-0.728-1.374-0.728c-0.645,0-0.794,0.414-0.794,0.943v5.328
			c0,0.149-0.033,0.232-0.182,0.232h-0.728c-0.182,0-0.265,0-0.265-0.232v-5.659c0-0.265,0-0.497,0.182-0.728
			c0.38-0.381,1.787-0.563,2.317-0.563c0.529,0,1.406,0.083,1.406,0.794C121.081,64.993,120.866,65.258,120.551,65.258z"/>
		<path fill="#FFF4E2" d="M122.57,62.875c-0.414,0-0.728-0.265-0.728-0.728c0-0.414,0.297-0.729,0.728-0.729
			c0.463,0,0.729,0.298,0.729,0.761C123.299,62.561,122.984,62.875,122.57,62.875z M123.183,70.851c0,0.182-0.033,0.265-0.231,0.265
			h-0.794c-0.149,0-0.182-0.033-0.182-0.182v-6.62c0-0.182,0.033-0.231,0.232-0.231h0.728c0.231,0,0.265,0.033,0.265,0.265
			L123.183,70.851L123.183,70.851z"/>
		<path fill="#FFF4E2" d="M130.216,70.818c0,0.149-0.033,0.265-0.232,0.265h-0.728c-0.182,0-0.265-0.033-0.265-0.232v-4.567
			c0-0.298,0-0.646-0.116-0.943c-0.265-0.562-0.877-0.728-1.489-0.728c-0.463,0-1.026,0.116-1.324,0.53
			c-0.116,0.182-0.149,0.463-0.149,0.678v5.014c0,0.182-0.033,0.265-0.231,0.265h-0.762c-0.182,0-0.231-0.116-0.231-0.265v-5.478
			c0-0.348,0-0.562,0.265-0.794c0.529-0.496,1.936-0.646,2.631-0.646c0.993,0,2.019,0.182,2.433,1.175
			c0.116,0.298,0.149,0.761,0.149,1.059v4.633L130.216,70.818L130.216,70.818z"/>
		<path fill="#FFF4E2" d="M131.623,73.284c0.033-0.033,0.083-0.083,0.116-0.116s0.083-0.033,0.149-0.083
			c0.53,0.033,0.943,0.347,1.556,0.347c1.407,0,2.284-0.728,2.284-2.25v-0.563c-0.678,0.298-1.108,0.729-1.87,0.729
			c-1.788,0-2.582-1.671-2.582-3.343c0-2.052,1.175-4.104,3.31-4.104c0.612,0,2.317,0.298,2.317,1.258v6.305
			c0,1.87-1.705,2.929-3.31,2.929c-0.265,0-0.794-0.083-1.225-0.265c-0.43-0.182-0.728-0.347-0.728-0.645V73.3L131.623,73.284
			L131.623,73.284z M134.287,70.354c0.265,0,1.44-0.231,1.44-0.562v-4.369c0-0.612-0.794-0.794-1.258-0.794
			c-1.489,0-1.969,1.788-1.969,3.078C132.5,68.948,132.913,70.354,134.287,70.354z"/>
		<path fill="#FFF4E2" d="M142.114,62.875c-0.414,0-0.728-0.265-0.728-0.728c0-0.414,0.298-0.729,0.728-0.729
			c0.463,0,0.728,0.298,0.728,0.761C142.842,62.561,142.495,62.875,142.114,62.875z M142.727,70.851
			c0,0.182-0.033,0.265-0.231,0.265h-0.844c-0.149,0-0.182-0.033-0.182-0.182v-6.62c0-0.182,0.033-0.231,0.232-0.231h0.728
			c0.232,0,0.265,0.033,0.265,0.265v6.503H142.727L142.727,70.851z"/>
		<path fill="#FFF4E2" d="M149.826,69.743c0,0.265-0.033,0.463-0.182,0.678c-0.464,0.612-1.754,0.844-2.516,0.844
			c-2.135,0-3.194-1.406-3.194-3.458c0-1.903,1.109-3.872,3.227-3.872c0.53,0,0.993,0.149,1.44,0.463v-3.426
			c0-0.182,0.083-0.265,0.265-0.265h0.678c0.182,0,0.265,0.033,0.265,0.232L149.826,69.743L149.826,69.743z M148.618,65.109
			c-0.38-0.347-0.761-0.497-1.291-0.497c-1.489,0-2.134,1.589-2.134,2.846c0,1.407,0.612,2.962,2.25,2.962
			c0.794,0,1.225-0.265,1.225-1.06L148.618,65.109L148.618,65.109z"/>
		<path fill="#FFF4E2" d="M156.412,69.709c-0.496,0.993-1.324,1.555-2.465,1.555c-2.085,0-2.929-1.82-2.929-3.69
			c0-1.937,0.877-3.69,3.044-3.69c1.109,0,1.937,0.53,2.35,1.522c0.116,0.265,0.182,0.562,0.182,0.877
			c0,0.265-0.149,0.381-0.38,0.414l-4.137,0.613c0.083,1.225,0.612,2.78,2.085,2.78c0.91,0,1.489-0.562,1.936-1.324
			c0.116-0.149,0.116-0.298,0.348-0.298c0.182,0,0.265,0.149,0.265,0.348C156.677,69.097,156.528,69.527,156.412,69.709z
			 M155.304,66.218c-0.083-0.761-0.612-1.523-1.44-1.523c-1.175,0-1.671,0.993-1.787,2.052L155.304,66.218z"/>
		<path fill="#FFF4E2" d="M162.303,69.709c0,0.265-0.033,0.612-0.182,0.844c-0.413,0.563-1.671,0.679-2.316,0.679
			c-1.225,0-2.35-0.463-2.35-1.871c0-1.787,2.35-2.25,3.69-2.664v-0.678c0-0.728-0.116-1.44-1.026-1.44
			c-0.562,0-0.943,0.348-1.142,0.877c-0.033,0.033-0.033,0.116-0.083,0.182c-0.116,0.265-0.265,0.414-0.529,0.414
			c-0.348,0-0.53-0.265-0.53-0.562c0-1.142,1.556-1.589,2.466-1.589c1.489,0,2.019,0.761,2.019,2.167v3.641H162.303z
			 M161.128,67.393c-0.91,0.265-2.466,0.612-2.466,1.82c0,0.844,0.563,1.291,1.374,1.291c0.678,0,1.108-0.231,1.108-0.993v-2.118
			H161.128z"/>
		<path fill="#FFF4E2" d="M165.828,71.265c-0.761,0-1.374-0.182-1.903-0.728c-0.232-0.231-0.414-0.529-0.414-0.844
			c0-0.348,0.265-0.612,0.563-0.612c0.678,0,0.612,1.374,1.87,1.374c0.612,0,1.059-0.381,1.059-1.026
			c0-1.754-3.343-1.324-3.343-3.657c0-1.224,0.993-1.903,2.135-1.903c0.679,0,1.439,0.182,1.87,0.761
			c0.148,0.182,0.265,0.38,0.265,0.612c0,0.298-0.232,0.529-0.529,0.529c-0.729,0-0.53-1.175-1.605-1.175
			c-0.562,0-1.026,0.381-1.026,0.993c0,1.671,3.376,1.225,3.376,3.657C168.112,70.586,167.136,71.265,165.828,71.265z"/>
	</g>
</g>
</svg>

<?xml version="1.0" encoding="UTF-8" standalone="no"?>
<!DOCTYPE svg PUBLIC "-//W3C//DTD SVG 1.1//EN" "http://www.w3.org/Graphics/SVG/1.1/DTD/svg11.dtd">
<svg width="100%" height="100%" viewBox="0 0 240 100" version="1.1" xmlns="http://www.w3.org/2000/svg" xmlns:xlink="http://www.w3.org/1999/xlink" xml:space="preserve" xmlns:serif="http://www.serif.com/" style="fill-rule:evenodd;clip-rule:evenodd;stroke-linejoin:round;stroke-miterlimit:2;">
    <g>
        <g>
            <path d="M87.636,52.333L87.636,55.146L70.178,55.146L82.374,40.021L72.197,40.021L72.197,37.241L88.134,37.241L76.004,52.333L87.636,52.333Z" style="fill:rgb(48,66,242);fill-rule:nonzero;"/>
            <g>
                <path d="M93.594,47.236C93.594,50.232 93.942,52.83 97.632,52.83C101.322,52.83 101.669,50.248 101.669,47.236L101.669,37.241L104.714,37.241L104.714,47.584C104.714,52.334 102.926,55.676 97.598,55.676C92.319,55.676 90.482,52.366 90.482,47.584L90.482,37.241L93.527,37.241L93.527,47.236L93.594,47.236Z" style="fill:rgb(48,66,242);fill-rule:nonzero;"/>
                <path d="M96.49,27.659C96.49,28.801 95.58,29.711 94.438,29.711C93.296,29.711 92.386,28.801 92.386,27.659C92.386,26.517 93.297,25.607 94.438,25.607C95.58,25.607 96.49,26.518 96.49,27.659Z" style="fill:rgb(48,66,242);fill-rule:nonzero;"/>
                <path d="M102.944,27.659C102.944,28.801 102.034,29.711 100.892,29.711C99.75,29.711 98.84,28.801 98.84,27.659C98.84,26.517 99.75,25.607 100.892,25.607C102.034,25.607 102.944,26.518 102.944,27.659Z" style="fill:rgb(48,66,242);fill-rule:nonzero;"/>
            </g>
            <path d="M112.228,25.723L112.228,39.376L112.311,39.459C113.569,37.755 115.207,36.795 117.408,36.795C122.356,36.795 123.497,40.37 123.497,44.589L123.497,55.23L120.453,55.23L120.453,45.085C120.453,42.189 120.221,39.607 116.696,39.607C112.509,39.607 112.244,43.48 112.244,46.723L112.244,55.229L109.199,55.229L109.199,25.723L112.228,25.723Z" style="fill:rgb(48,66,242);fill-rule:nonzero;"/>
            <rect x="127.998" y="25.723" width="3.045" height="29.423" style="fill:rgb(48,66,242);fill-rule:nonzero;"/>
            <path d="M139.102,43.894L145.639,37.242L149.71,37.242L142.032,44.888L151.15,55.198L147.129,55.198L139.103,46.113L139.103,55.198L136.059,55.198L136.059,25.723L139.103,25.723L139.103,43.894L139.102,43.894Z" style="fill:rgb(48,66,242);fill-rule:nonzero;"/>
            <path d="M165.381,49.454C164.239,51.424 162.651,52.83 160.218,52.83C156.842,52.83 154.509,50.165 154.476,46.856L168.278,46.856C168.576,41.527 165.58,36.745 159.954,36.745C154.476,36.745 151.432,41.114 151.432,46.442C151.432,51.572 154.775,55.676 160.021,55.676C163.479,55.676 166.177,53.922 167.898,50.926L165.381,49.454ZM159.937,39.558C162.568,39.558 164.687,41.643 165.1,44.241L154.609,44.241C154.956,41.66 157.355,39.558 159.937,39.558Z" style="fill:rgb(48,66,242);fill-rule:nonzero;"/>
        </g>
        <g>
            <path d="M75.887,69.709C75.391,70.702 74.563,71.264 73.421,71.264C71.336,71.264 70.492,69.444 70.492,67.574C70.492,65.637 71.369,63.884 73.536,63.884C74.645,63.884 75.473,64.414 75.886,65.406C76.002,65.671 76.068,65.968 76.068,66.283C76.068,66.548 75.919,66.664 75.688,66.697L71.551,67.31C71.634,68.535 72.163,70.09 73.635,70.09C74.546,70.09 75.125,69.528 75.572,68.766C75.688,68.617 75.688,68.468 75.92,68.468C76.102,68.468 76.185,68.617 76.185,68.816C76.103,69.097 75.954,69.527 75.887,69.709ZM74.745,66.218C74.662,65.457 74.133,64.695 73.306,64.695C72.131,64.695 71.635,65.688 71.519,66.747L74.745,66.218Z" style="fill:rgb(48,66,242);fill-rule:nonzero;"/>
            <path d="M86.18,70.851C86.18,71.033 86.147,71.116 85.949,71.116L85.237,71.116C85.055,71.116 85.006,71.083 85.006,70.851L85.006,66.433C85.006,65.523 84.858,64.679 83.715,64.679C83.185,64.679 82.689,64.91 82.457,65.44C82.424,65.589 82.374,65.903 82.374,66.085L82.374,70.835C82.374,70.984 82.374,71.1 82.142,71.1L81.381,71.1C81.232,71.1 81.15,71.017 81.15,70.868L81.15,66.185C81.15,65.308 80.802,64.629 79.826,64.629C79.297,64.629 78.8,64.86 78.601,65.39C78.518,65.572 78.518,65.886 78.518,66.118L78.518,70.834C78.518,71.016 78.485,71.099 78.253,71.099L77.575,71.099C77.393,71.099 77.343,71.066 77.343,70.834L77.343,65.39C77.343,65.009 77.343,64.828 77.608,64.513C77.989,64.099 79.313,63.901 79.859,63.901C80.653,63.901 81.381,64.05 81.878,64.745C82.491,64.099 83.136,63.901 84.013,63.901C85.42,63.901 86.214,64.513 86.214,65.92L86.18,70.851Z" style="fill:rgb(48,66,242);fill-rule:nonzero;"/>
            <path d="M90.45,71.265C89.887,71.265 89.457,71.117 88.96,70.768L88.96,74.045C88.96,74.194 88.877,74.277 88.729,74.277L88.05,74.277C87.868,74.277 87.785,74.244 87.785,74.045L87.785,65.837C87.785,65.49 87.752,65.076 87.934,64.778C88.348,64.166 89.754,63.901 90.45,63.901C92.534,63.901 93.61,65.275 93.61,67.244C93.594,69.097 92.568,71.265 90.45,71.265ZM90.168,64.662C89.258,64.662 88.993,65.01 88.993,65.837L88.993,69.974C89.407,70.239 89.87,70.437 90.367,70.437C91.856,70.437 92.386,68.732 92.386,67.508C92.386,66.135 91.774,64.662 90.168,64.662Z" style="fill:rgb(48,66,242);fill-rule:nonzero;"/>
            <path d="M97.583,71.265C95.531,71.265 94.472,69.445 94.472,67.575C94.472,65.787 95.614,63.917 97.583,63.917C99.602,63.917 100.661,65.854 100.661,67.641C100.661,69.428 99.568,71.265 97.583,71.265ZM99.37,67.475C99.37,66.416 98.808,64.695 97.467,64.695C96.094,64.695 95.713,66.334 95.713,67.426C95.713,68.568 96.176,70.47 97.616,70.47C98.94,70.47 99.37,68.799 99.37,67.74L99.37,67.475Z" style="fill:rgb(48,66,242);fill-rule:nonzero;"/>
            <path d="M109.795,64.463L107.826,70.884C107.793,71 107.793,71.066 107.644,71.066L107.181,71.066C106.999,71.066 106.949,71.066 106.916,70.884L105.592,66.515L104.268,70.884C104.235,71.066 104.185,71.066 104.003,71.066L103.606,71.066C103.424,71.066 103.375,71.033 103.341,70.884L101.289,64.463C101.256,64.347 101.256,64.314 101.256,64.232C101.256,64.116 101.338,64.083 101.438,64.083L102.2,64.083C102.431,64.083 102.465,64.116 102.547,64.348L104.036,69.362L105.526,64.348C105.609,64.083 105.559,64.083 105.906,64.083C106.055,64.083 106.055,64.199 106.088,64.314L107.644,69.411L109.05,64.348C109.083,64.166 109.133,64.083 109.348,64.083L109.845,64.083C109.928,64.083 110.077,64.083 110.077,64.232C109.877,64.314 109.828,64.381 109.795,64.463Z" style="fill:rgb(48,66,242);fill-rule:nonzero;"/>
            <path d="M115.72,69.709C115.223,70.702 114.395,71.264 113.254,71.264C111.169,71.264 110.325,69.444 110.325,67.574C110.325,65.637 111.202,63.884 113.37,63.884C114.478,63.884 115.306,64.414 115.72,65.406C115.836,65.671 115.902,65.968 115.902,66.283C115.902,66.548 115.753,66.664 115.521,66.697L111.384,67.31C111.467,68.535 111.996,70.09 113.469,70.09C114.379,70.09 114.959,69.528 115.405,68.766C115.521,68.617 115.521,68.468 115.753,68.468C115.935,68.468 116.018,68.617 116.018,68.816C115.952,69.097 115.802,69.527 115.72,69.709ZM114.578,66.218C114.495,65.457 113.966,64.695 113.138,64.695C111.963,64.695 111.467,65.688 111.351,66.747L114.578,66.218Z" style="fill:rgb(48,66,242);fill-rule:nonzero;"/>
            <path d="M120.551,65.258C120.022,65.258 120.022,64.53 119.177,64.53C118.532,64.53 118.383,64.944 118.383,65.473L118.383,70.801C118.383,70.95 118.35,71.033 118.201,71.033L117.473,71.033C117.291,71.033 117.208,71.033 117.208,70.801L117.208,65.142C117.208,64.877 117.208,64.645 117.39,64.414C117.77,64.033 119.177,63.851 119.707,63.851C120.236,63.851 121.113,63.934 121.113,64.645C121.081,64.993 120.866,65.258 120.551,65.258Z" style="fill:rgb(48,66,242);fill-rule:nonzero;"/>
            <path d="M122.57,62.875C122.156,62.875 121.842,62.61 121.842,62.147C121.842,61.733 122.139,61.418 122.57,61.418C123.033,61.418 123.299,61.716 123.299,62.179C123.299,62.561 122.984,62.875 122.57,62.875ZM123.183,70.851C123.183,71.033 123.15,71.116 122.952,71.116L122.158,71.116C122.009,71.116 121.976,71.083 121.976,70.934L121.976,64.314C121.976,64.132 122.009,64.083 122.208,64.083L122.936,64.083C123.167,64.083 123.201,64.116 123.201,64.348L123.183,70.851Z" style="fill:rgb(48,66,242);fill-rule:nonzero;"/>
            <path d="M130.216,70.818C130.216,70.967 130.183,71.083 129.984,71.083L129.256,71.083C129.074,71.083 128.991,71.05 128.991,70.851L128.991,66.284C128.991,65.986 128.991,65.638 128.875,65.341C128.61,64.779 127.998,64.613 127.386,64.613C126.923,64.613 126.36,64.729 126.062,65.143C125.946,65.325 125.913,65.606 125.913,65.821L125.913,70.835C125.913,71.017 125.88,71.1 125.682,71.1L124.92,71.1C124.738,71.1 124.689,70.984 124.689,70.835L124.689,65.357C124.689,65.009 124.689,64.795 124.954,64.563C125.483,64.067 126.89,63.917 127.585,63.917C128.578,63.917 129.604,64.099 130.018,65.092C130.134,65.39 130.167,65.853 130.167,66.151L130.167,70.784L130.216,70.818Z" style="fill:rgb(48,66,242);fill-rule:nonzero;"/>
            <path d="M131.623,73.284C131.656,73.251 131.706,73.201 131.739,73.168C131.772,73.135 131.822,73.135 131.888,73.085C132.418,73.118 132.831,73.432 133.444,73.432C134.851,73.432 135.728,72.704 135.728,71.182L135.728,70.619C135.05,70.917 134.62,71.348 133.858,71.348C132.07,71.348 131.276,69.677 131.276,68.005C131.276,65.953 132.451,63.901 134.586,63.901C135.198,63.901 136.903,64.199 136.903,65.159L136.903,71.464C136.903,73.334 135.198,74.393 133.593,74.393C133.328,74.393 132.799,74.31 132.368,74.128C131.938,73.946 131.64,73.781 131.64,73.483L131.64,73.3L131.623,73.284ZM134.287,70.354C134.552,70.354 135.727,70.123 135.727,69.792L135.727,65.423C135.727,64.811 134.933,64.629 134.469,64.629C132.98,64.629 132.5,66.417 132.5,67.707C132.5,68.948 132.913,70.354 134.287,70.354Z" style="fill:rgb(48,66,242);fill-rule:nonzero;"/>
            <path d="M142.114,62.875C141.7,62.875 141.386,62.61 141.386,62.147C141.386,61.733 141.684,61.418 142.114,61.418C142.577,61.418 142.842,61.716 142.842,62.179C142.842,62.561 142.495,62.875 142.114,62.875ZM142.727,70.851C142.727,71.033 142.694,71.116 142.496,71.116L141.652,71.116C141.503,71.116 141.47,71.083 141.47,70.934L141.47,64.314C141.47,64.132 141.503,64.083 141.702,64.083L142.43,64.083C142.662,64.083 142.695,64.116 142.695,64.348L142.695,70.851L142.727,70.851Z" style="fill:rgb(48,66,242);fill-rule:nonzero;"/>
            <path d="M149.826,69.743C149.826,70.008 149.793,70.206 149.644,70.421C149.18,71.033 147.89,71.265 147.128,71.265C144.993,71.265 143.934,69.859 143.934,67.807C143.934,65.904 145.043,63.935 147.161,63.935C147.691,63.935 148.154,64.084 148.601,64.398L148.601,60.972C148.601,60.79 148.684,60.707 148.866,60.707L149.544,60.707C149.726,60.707 149.809,60.74 149.809,60.939L149.826,69.743ZM148.618,65.109C148.238,64.762 147.857,64.612 147.327,64.612C145.838,64.612 145.193,66.201 145.193,67.458C145.193,68.865 145.805,70.42 147.443,70.42C148.237,70.42 148.668,70.155 148.668,69.36L148.618,65.109Z" style="fill:rgb(48,66,242);fill-rule:nonzero;"/>
            <path d="M156.412,69.709C155.916,70.702 155.088,71.264 153.947,71.264C151.862,71.264 151.018,69.444 151.018,67.574C151.018,65.637 151.895,63.884 154.062,63.884C155.171,63.884 155.999,64.414 156.412,65.406C156.528,65.671 156.594,65.968 156.594,66.283C156.594,66.548 156.445,66.664 156.214,66.697L152.077,67.31C152.16,68.535 152.689,70.09 154.162,70.09C155.072,70.09 155.651,69.528 156.098,68.766C156.214,68.617 156.214,68.468 156.446,68.468C156.628,68.468 156.711,68.617 156.711,68.816C156.677,69.097 156.528,69.527 156.412,69.709ZM155.304,66.218C155.221,65.457 154.692,64.695 153.864,64.695C152.689,64.695 152.193,65.688 152.077,66.747L155.304,66.218Z" style="fill:rgb(48,66,242);fill-rule:nonzero;"/>
            <path d="M162.303,69.709C162.303,69.974 162.27,70.321 162.121,70.553C161.708,71.116 160.45,71.232 159.805,71.232C158.58,71.232 157.455,70.769 157.455,69.361C157.455,67.574 159.805,67.111 161.145,66.697L161.145,66.019C161.145,65.291 161.029,64.579 160.119,64.579C159.557,64.579 159.176,64.927 158.977,65.456C158.944,65.489 158.944,65.572 158.894,65.638C158.778,65.903 158.629,66.052 158.365,66.052C158.017,66.052 157.835,65.787 157.835,65.49C157.835,64.348 159.391,63.901 160.301,63.901C161.79,63.901 162.32,64.662 162.32,66.068L162.32,69.709L162.303,69.709ZM161.128,67.393C160.218,67.658 158.662,68.005 158.662,69.213C158.662,70.057 159.225,70.504 160.036,70.504C160.714,70.504 161.144,70.273 161.144,69.511L161.144,67.393L161.128,67.393Z" style="fill:rgb(48,66,242);fill-rule:nonzero;"/>
            <path d="M165.828,71.265C165.067,71.265 164.454,71.083 163.925,70.537C163.693,70.306 163.511,70.008 163.511,69.693C163.511,69.345 163.776,69.081 164.074,69.081C164.752,69.081 164.686,70.455 165.944,70.455C166.556,70.455 167.003,70.074 167.003,69.429C167.003,67.675 163.66,68.105 163.66,65.772C163.66,64.548 164.653,63.869 165.795,63.869C166.474,63.869 167.234,64.051 167.665,64.63C167.813,64.812 167.93,65.01 167.93,65.242C167.93,65.54 167.698,65.771 167.401,65.771C166.672,65.771 166.871,64.596 165.796,64.596C165.234,64.596 164.77,64.977 164.77,65.589C164.77,67.26 168.146,66.814 168.146,69.246C168.112,70.586 167.136,71.265 165.828,71.265Z" style="fill:rgb(48,66,242);fill-rule:nonzero;"/>
        </g>
    </g>
</svg>
